assets/sonr-icons/swap-coins.svg

<svg xmlns="http://www.w3.org/2000/svg" width="24" height="24" fill="none" viewBox="0 0 24 24"><path fill="#000" d="M6.51886 1.32116C6.14396 0.946252 5.53612 0.946252 5.16122 1.32116C4.78631 1.69606 4.78631 2.3039 5.16122 2.6788L5.45742 2.975C2.98515 3.16993 1.04004 5.23757 1.04004 7.75998C1.04004 8.29017 1.46985 8.71998 2.00004 8.71998C2.53023 8.71998 2.96004 8.29017 2.96004 7.75998C2.96004 6.31511 4.02355 5.11905 5.41061 4.91176L5.16122 5.16116C4.78631 5.53606 4.78631 6.1439 5.16122 6.5188C5.53612 6.8937 6.14396 6.8937 6.51886 6.5188L8.43886 4.5988C8.6189 4.41877 8.72004 4.17459 8.72004 3.91998C8.72004 3.66537 8.6189 3.42119 8.43886 3.24116L6.51886 1.32116Z"/><path fill="#000" fill-rule="evenodd" d="M15.44 1.03998C11.7288 1.03998 8.72004 4.04878 8.72004 7.75998C8.72004 8.11346 8.74742 8.46084 8.80016 8.8C8.46116 8.74732 8.11379 8.71998 7.76004 8.71998C4.04885 8.71998 1.04004 11.7288 1.04004 15.44C1.04004 19.1512 4.04885 22.16 7.76004 22.16C11.4712 22.16 14.48 19.1512 14.48 15.44C14.48 15.0863 14.4527 14.7389 14.4 14.4C14.7394 14.4527 15.0868 14.48 15.44 14.48C19.1512 14.48 22.16 11.4712 22.16 7.75998C22.16 4.04878 19.1512 1.03998 15.44 1.03998ZM13.6595 12.2195C13.0419 11.0906 12.1096 10.1583 10.9807 9.54067C10.7613 8.9915 10.64 8.39087 10.64 7.75998C10.64 5.10917 12.7892 2.95998 15.44 2.95998C18.0908 2.95998 20.24 5.10917 20.24 7.75998C20.24 10.4108 18.0908 12.56 15.44 12.56C14.8094 12.56 14.2088 12.4392 13.6595 12.2195ZM2.96004 15.44C2.96004 12.7892 5.10923 10.64 7.76004 10.64C10.4108 10.64 12.56 12.7892 12.56 15.44C12.56 18.0908 10.4108 20.24 7.76004 20.24C5.10923 20.24 2.96004 18.0908 2.96004 15.44Z" clip-rule="evenodd"/><path fill="#000" d="M22.16 15.44C22.16 14.9098 21.7302 14.48 21.2 14.48C20.6698 14.48 20.24 14.9098 20.24 15.44C20.24 16.8849 19.1765 18.0809 17.7895 18.2882L18.0389 18.0388C18.4138 17.6639 18.4138 17.0561 18.0389 16.6812C17.664 16.3063 17.0561 16.3063 16.6812 16.6812L14.7612 18.6012C14.3863 18.9761 14.3863 19.5839 14.7612 19.9588L16.6812 21.8788C17.0561 22.2537 17.664 22.2537 18.0389 21.8788C18.4138 21.5039 18.4138 20.8961 18.0389 20.5212L17.7427 20.225C20.2149 20.03 22.16 17.9624 22.16 15.44Z"/></svg>

<svg xmlns="http://www.w3.org/2000/svg" width="24" height="24" fill="none"><path fill="currentColor" d="M6.519 1.321A.96.96 0 1 0 5.16 2.68l.296.296A4.8 4.8 0 0 0 1.04 7.76a.96.96 0 0 0 1.92 0 2.88 2.88 0 0 1 2.45-2.848l-.249.25A.96.96 0 1 0 6.52 6.518l1.92-1.92a.96.96 0 0 0 0-1.358z"/><path fill="currentColor" fill-rule="evenodd" d="M15.44 1.04A6.72 6.72 0 0 0 8.8 8.8a6.72 6.72 0 1 0 5.6 5.6q.51.08 1.04.08a6.72 6.72 0 0 0 0-13.44m-1.78 11.18a6.75 6.75 0 0 0-2.68-2.68 4.8 4.8 0 1 1 2.679 2.679m-10.7 3.22a4.8 4.8 0 1 1 9.6 0 4.8 4.8 0 0 1-9.6 0" clip-rule="evenodd"/><path fill="currentColor" d="M22.16 15.44a.96.96 0 1 0-1.92 0 2.88 2.88 0 0 1-2.45 2.848l.249-.25a.96.96 0 1 0-1.358-1.357l-1.92 1.92a.96.96 0 0 0 0 1.358l1.92 1.92a.96.96 0 0 0 1.358-1.358l-.296-.296a4.8 4.8 0 0 0 4.417-4.785"/></svg>
